assets/symbols/mulberry/goal.svg

<svg height="850.394" viewBox="0 0 850.394 850.394" width="850.394" xmlns="http://www.w3.org/2000/svg"><g fill="none"><path d="m364.332 558.062 201.429-51.501m-491.444 125.643 290.015-74.142m-150.182-387.916 97.277-18.239 1.012 562.377s2.027 19.247-15.197 14.186c-17.228-5.069-221.913-90.188-221.913-90.188zm457.121-33.504 78.599-6.633 20.242 426.88s1.642 15.555-12.277 11.46c-13.927-4.102-198.737-53.443-198.737-53.443zm-350.142 13.167 438.94-21.282" stroke="#231f20" stroke-width="27.907"/><path d="m312.234 601.23h-225.915m225.915 68.924h-170.101m258.643-529.077h262.789m-560.472 383.538h374.428m-352.329-76.841h462.793l179.45 52.708m-617.824-129.333h460.47l152.891 35.187m-593.596-111.799h455.074l134.441 25.727m-565.099-102.568h460.474l100.544 16.547m-183.62-93.166v369.776m-105.449-369.776v391.054m-105.613-391.054v418.062m-126.54-404.108-.003 554.661m-84.522-330.241v291.548m537.477-535.645v401.607m-71.806-191.229v191.229" stroke="#231f20" stroke-width="13.954"/><path d="m0 0h850.394v850.394h-850.394z"/></g></svg>

<svg xmlns="http://www.w3.org/2000/svg" width="850.394" height="850.394" viewBox="0 0 850.394 850.394" overflow="visible"><path fill="none" stroke="#231f20" stroke-width="27.907" d="M364.332 558.062l201.429-51.501M74.317 632.204l290.015-74.142M214.15 170.146l97.277-18.239 1.012 562.377s2.027 19.247-15.197 14.186c-17.228-5.069-221.913-90.188-221.913-90.188L214.15 170.146zM671.271 136.642l78.599-6.633 20.242 426.88s1.642 15.555-12.277 11.46c-13.927-4.102-198.737-53.443-198.737-53.443l112.173-378.264zM321.129 149.809l438.94-21.282"/><path fill="none" stroke="#231f20" stroke-width="13.954" d="M312.234 601.23H86.319M312.234 670.154H142.133M400.776 141.077h262.789M103.093 524.615h374.428M125.192 447.774h462.793l179.45 52.708M149.611 371.149h460.47l152.891 35.187M169.376 294.537H624.45l134.441 25.727M193.792 217.696h460.474l100.544 16.547M571.19 141.077v369.776M465.741 141.077v391.054M360.128 141.077v418.062M233.588 155.031l-.003 554.661M149.063 379.451v291.548M686.54 135.354v401.607M614.734 345.732v191.229"/><path fill="none" d="M0 0h850.394v850.394H0z"/></svg>
